X:1
T:[ID 2-3b]
T:[ID 2-3b]
T:Bezeichnung standardisiert: Menuett Men. In dieser Quelle auch als: Menuetto
T:Urheber unbekannt Erstbeleg: 1767 (Datum in der schriftlichen Quelle) Datum in der hier transkribierten schriftlichen Quelle: 1776 - 1791
C:Urheber unbekannt
C:Erstbeleg: 1767 (Datum in der schriftlichen Quelle)
C:Datum in der hier transkribierten schriftlichen Quelle: 1776 - 1791
L:1/8
M:3/4
K:A
V:1 treble 
V:1
 e4 c>e | d2 B4 | cAdBef | e2 d2 c2 | e4 c>e |{e} d2 B4 | ce d2 c2 |{d} c2 B4 :: %8
 [ce]2 [ce][ce][ce][ce] | [df]2 [df][df][df][df] | g2 gefg | agab a2 | e4 c>e | d2 B4 | %14
 (3agf edcB | B2 A4 :| %16

